X:1
T:Title
%%score 1 2 3
L:1/8
M:4/2
K:F
V:1 bass nm="Part_1"
V:2 bass nm="Part_2"
V:3 bass nm="Part_3"
V:1
 F,8 F,4 F,4 | D,3 C,D,C,D,E,F,E,D,C, B,,4 | F,,8 z8 | F,,8 F,,4 F,,4 | B,,16 | %5
 F,4 F,4 G,2 A,2 B,2 G,2 | F,E,D,C, B,,2 A,,G,, F,,G,,A,,B,, C,4 | B,,4 B,,4 C,4 F,4 | %8
 C,4 G,4 E,2 F,4 E,2 | F,8 z8 | z8 z2 C,4 A,,2- | A,,2 B,,4 G,,4 A,,2 B,,A,,B,,C, | %12
 D,C,B,,A,, G,,4 C,8 | z16 | z8 F,4 F,2 E,2 | G,3 G, C,4 z8 | z8 B,2 A,2 G,2 F,2 | %17
 _E,2 D,2 C,B,,C,D, E,4 B,,2 B,,2 | C,2 G,,2 A,,3 B,, C,8 | F,,4 F,8 D,4 | G,4 E,4 D,8 | z16 | %22
[M:6/2] G,16 E,8 | F,16 D,8 | C,24 | z24 | F,12 F,4 F,4 F,4 | C,8 C,8 G,8 | D,8 (A,8 A,,8) | D,24 | %30
 z24 | z24 |[M:4/2] A,2 A,A, ^F,2 G,2 D,4 z4 | G,2 G,2 G,2 G,2 E,2 E,2 E,2 C,2 | %34
 F,4 C,4 D,4 G,2 F,2 | E,2 D,2 C,2 D,2 E,2 F,2 G,2 G,,2 | C,8 z8 | z8 z4 F,4 | %38
 D,2 G,2 ^F, G,2 F, G,4 G,4 | D,4 G,,4 z4 G,4 | D,4 _E,4 E,2 G,2 F,4 | B,,8 z8 | z8 z4 D,4- | %43
 D,2 A,,2 C,6 G,,2 B,,4- | B,,2 F,,2 G,,A,,B,,C,D,E,F,G, A,2 A,,2 | D,4 G,6 _E,2 D,4 | G,,8 z8 | %47
 z8 z8 | z8 z8 | z8 z4 F,4- | F,2 D,2 C,4 F,,8 | z2 B,,4 B,,2 F,8 | z4 F,4 E,4 F,4 | %53
 C,4 F,,2 F,,2 C,2 C,2 F,,4 | C,4 F,,4 C,2 C,2 F,4 | z16 | z2 C,2 E,2 F,2 G,2 F,E, D,4 | %57
 G,,4 C,4 A,,4 B,,4 | C,4 B,,2 A,,2 G,,8 |[M:4/4] F,,8 |[M:6/2] z24 | G,16 E,8 | D,16 G,8 | %63
 C,8 C,8 C,8 | F,8 F,16 | D,16 B,,8 | F,,8 F,,8 F,,8 | B,,8 B,,16 | F,24 | B,,16 z8 | z24 | %71
[M:4/2] z2 B,4 ^F,4 G,2 D,2 =F,2 | C,4 F,,4 z8 | z8 z8 | z8 z4 D,4- | D,4 A,,4 B,,2 C,2 D,2 E,2 | %76
 F,8 B,,8 | z4 D,8 F,4 | E,2 C,2 F,8 E,4 | F,16 |] %80
V:2
 F,,8 F,,4 F,,4 | B,,16 | F,8 z8 | F,8 F,4 F,4 | D,3 C,D,C,D,E,F,E,D,C, B,,4 | F,,8 z8 | %6
 z8 z4 C,4 | D,2 E,2 F,2 D,2 C,B,,A,,G,,F,,G,,A,,B,, | C,2 B,,A,, G,,4 C,4 C,4 | F,4 D,4 _E,4 C,4 | %10
 B,,C,D,E, F,2 E,D, C,4 F,,4 | z16 | z4 z2 G,4 E,4 F,2- | F,2 D,4 E,2 F,E,F,G,A,G,F,E, | %14
 D,4 C,4 F,,4 F,,2 C,2 | G,,3 G,, C,4 F,2 E,2 D,2 C,2 | B,,2 A,,2 G,,F,,G,,A,, B,,4 _E,2 B,,2 | %17
 C,2 G,,2 A,,3 B,, C,4 D,2 D,2 | E,2 G,2 E,D,C,D, E,2 F,4 E,2 | F,8 z8 | z8 z4 B,,4- | %21
 B,,4 G,,4 C,4 A,,4 |[M:6/2] G,,16 z8 | z24 | C,16 A,,8 | B,,16 G,,8 | F,,24 | z24 | z24 | %29
 D,12 D,4 D,4 D,4 | G,,8 G,,8 D,8 | A,,8 (E,8 E,,8) |[M:4/2] A,,4 z4 D,2 D,D, =B,,2 C,2 | %33
 G,,8 C,2 C,2 C,2 C,2 | A,,2 A,,2 A,,2 F,,2 B,,3 A,, G,,4 | C,8 z8 | %36
 C,2 B,,2 A,,2 G,,2 F,,2 G,,2 A,,2 B,,2 | C,2 B,,A,, G,,4 C,4 F,,4 | B,,2 G,,2 D,3 D, G,,8 | %39
 z4 G,4 D,4 G,,4 | z16 | z4 B,,4 F,,4 G,,4 | G,,2 B,,2 A,,4 D,8 | z16 | z16 | z16 | %46
 z4 G,6 D,2 F,4- | F,2 C,2 _E,6 B,,2 C,D,E,F, | G,4 G,,4 C,4 F,4- | F,2 D,2 C,4 F,,8 | %50
 z8 z2 F,,4 F,,2 | B,,8 z4 F,4 | E,4 F,4 C,4 F,,2 F,,2 | C,4 z4 z4 F,4 | E,4 F,4 C,4 F,,2 F,,2 | %55
 C,2 G,,2 A,,2 B,,2 C,2 B,,A,, G,,4 | C,4 z4 z8 | z4 C,4 F,4 D,4 | E,4 F,8 E,4 |[M:4/4] F,8 | %60
[M:6/2] C,16 A,,8 | G,,16 C,8 | z24 | z24 | F,,8 F,,8 F,,8 | B,,8 B,,16 | F,24 | B,,16 z8 | %68
 F,,8 F,,8 F,,8 | B,,8 B,,16 | F,24 |[M:4/2] B,,4 z4 z8 | z4 z2 F,4 ^C,4 D,2 | %73
 =B,,2 C,2 G,,4 C,4 D,4- | D,4 A,,4 B,,2 C,2 D,2 E,2 | F,8 B,,8 | z16 | z4 B,,8 A,,4 | C,16 | %79
 F,,16 |] %80
V:3
 F,,8 F,,4 F,,4 | B,,16 | F,,8 z8 | F,,8 F,,4 F,,4 | B,,16 | F,,4 F,4 G,2 A,2 B,2 G,2 | %6
 F,E,D,C, B,,2 A,,G,,F,,G,,A,,B,, C,4 | B,,4 B,,4 C,B,,A,,G,, F,,4 | C,2 B,,A,, G,,4 C,4 C,4 | %9
 F,4 D,4 _E,4 C,4 | B,,C,D,E, F,2 E,D, C,4 F,,4 | A,,2 B,,4 G,,4 A,,2 B,,A,,B,,C, | %12
 D,C,B,,A,, G,,4 C,6 F,,2 | F,2 D,4 E,2 F,E,F,G,A,G,F,E, | D,4 C,4 F,,4 F,,2 C,2 | %15
 G,,3 G,, C,4 F,2 E,2 D,2 C,2 | B,,2 A,,2 G,,F,,G,,A,, B,,4 _E,2 B,,2 | %17
 C,2 G,,2 A,,3 B,, C,4 B,,2 B,,2 | C,2 G,,G,, C,6 A,,2 G,,4 | F,,4 F,8 D,4 | G,4 E,4 D,4 B,,4- | %21
 B,,4 G,,4 C,4 A,,4 |[M:6/2] G,,16 C,8 | F,16 D,8 | C,16 A,,8 | B,,16 G,,8 | F,,16 F,,8 | %27
 C,8 C,8 G,,8 | D,8 A,,8 A,,8 | D,12 D,4 D,4 D,4 | G,,8 G,,8 D,8 | A,,8 E,16 | %32
[M:4/2] A,,2 A,,A,, D,2 G,,2 D,2 D,D, =B,,2 C,2 | G,,8 C,8 | A,,6 F,,2 B,,3 A,, G,,4 | %35
 C,4 C,4 C,4 G,,4 | C,2 B,,2 A,,2 G,,2 F,,2 G,,2 A,,2 B,,2 | C,2 B,,A,, G,,4 C,4 F,,4 | %38
 B,,2 G,,2 D,4 G,,4 G,,4 | D,4 G,,4 D,4 G,,4 | D,4 _E,4 E,2 G,2 F,4 | B,,4 B,,4 F,,4 G,,4 | %42
 G,,2 B,,2 A,,4 D,4 D,4- | D,2 A,,2 C,6 G,,2 B,,4- | B,,2 F,,2 G,,4 D,4 A,,4 | D,4 G,6 _E,2 D,4 | %46
 G,,4 G,6 D,2 F,4- | F,2 C,2 _E,6 B,,2 C,4 | G,,8 C,4 F,4- | F,2 D,2 C,4 F,,4 F,4- | %50
 F,2 D,2 C,4 F,,2 F,,4 F,,2 | B,,2 B,,4 B,,2 F,,4 F,,4 | C,4 F,,4 C,4 F,,4 | C,4 F,,4 C,4 F,,4 | %54
 C,4 F,,4 C,4 F,,2 F,,2 | C,2 G,,2 A,,2 B,,2 C,2 B,,A,, G,,4 | C,2 C,2 E,2 F,2 G,2 F,E, D,4 | %57
 G,,4 C,4 A,,4 B,,4 | C,4 B,,2 A,,2 G,,8 |[M:4/4] F,,8 |[M:6/2] C,16 A,,8 | G,,16 C,8 | D,16 G,,8 | %63
 C,8 C,8 C,8 | F,,8 F,,8 F,,8 | B,,8 B,,16 | F,,8 F,,8 F,,8 | B,,8 B,,16 | F,,8 F,,8 F,,8 | %69
 B,,8 B,,16 | F,,16 F,,8 |[M:4/2] B,,2 B,4 ^F,4 G,2 D,2 =F,2 | C,4 F,,2 F,4 ^C,4 D,2 | %73
 =B,,2 C,2 G,,4 C,4 D,4- | D,4 A,,4 B,,2 C,2 D,4- | D,4 A,,4 B,,8 | F,,8 B,,8 | z4 B,,8 A,,4 | %78
 C,16 | F,,16 |] %80

